Origami/64x64/apps/babe.svg

<svg width="64" height="64" version="1" xmlns="http://www.w3.org/2000/svg">
 <path d="m20 11c-2.700778 0.0033-5.158777 1.559897-6.316406 4h-2.683594c-3.8658331 3.87e-4 -6.9996135 3.134167-7 7v18c3.865e-4 3.865833 3.1341669 6.999613 7 7h3.257812c1.308363 1.878784 3.452725 2.999104 5.742188 3h2.080078c0.49693 3.440744 3.443482 5.995586 6.919922 6h6c3.477182-0.0034 6.424838-2.558524 6.921875-6h2.078125c2.286701-0.0034 4.427592-1.123479 5.734375-3h3.265625c3.865833-3.87e-4 6.999613-3.134167 7-7v-18c-3.87e-4 -3.865833-3.134167-6.999613-7-7h-2.685547c-1.157326-2.439467-3.614381-3.995931-6.314453-4h-6c-2.460278 0.0034-4.738165 1.298107-6 3.410156-1.261835-2.112049-3.539722-3.406708-6-3.410156z" style="opacity:.2"/>
 <path d="m20 10c-2.700778 0.0033-5.158777 1.559897-6.316406 4h-2.683594c-3.8658331 3.87e-4 -6.9996135 3.134167-7 7v18c3.865e-4 3.865833 3.1341669 6.999613 7 7h3.257812c1.308363 1.878784 3.452725 2.999104 5.742188 3h2.080078c0.49693 3.440744 3.443482 5.995586 6.919922 6h6c3.477182-0.0034 6.424838-2.558524 6.921875-6h2.078125c2.286701-0.0034 4.427592-1.123479 5.734375-3h3.265625c3.865833-3.87e-4 6.999613-3.134167 7-7v-18c-3.87e-4 -3.865833-3.134167-6.999613-7-7h-2.685547c-1.157326-2.439467-3.614381-3.995931-6.314453-4h-6c-2.460278 0.0034-4.738165 1.298107-6 3.410156-1.261835-2.112049-3.539722-3.406708-6-3.410156z" style="fill:#f85b79"/>
 <path d="m11 22v4h6v-4h-6z" style="opacity:.2"/>
 <path d="m11 29v4h6v-4h-6z" style="opacity:.2"/>
 <path d="m11 36v4h6v-4h-6z" style="opacity:.2"/>
 <path d="m20 18v4h6v-4h-6z" style="opacity:.2"/>
 <path d="m20 25v4h6v-4h-6z" style="opacity:.2"/>
 <path d="m20 32v4h6v-4h-6z" style="opacity:.2"/>
 <path d="m20 39v4h6v-4h-6z" style="opacity:.2"/>
 <path d="m29 24v4h6v-4h-6z" style="opacity:.2"/>
 <path d="m29 31v4h6v-4h-6z" style="opacity:.2"/>
 <path d="m29 38v4h6v-4h-6z" style="opacity:.2"/>
 <path d="m29 45v4h6v-4h-6z" style="opacity:.2"/>
 <path d="m53 22v4h-6v-4h6z" style="opacity:.2"/>
 <path d="m53 29v4h-6v-4h6z" style="opacity:.2"/>
 <path d="m53 36v4h-6v-4h6z" style="opacity:.2"/>
 <path d="m44 18v4h-6v-4h6z" style="opacity:.2"/>
 <path d="m44 25v4h-6v-4h6z" style="opacity:.2"/>
 <path d="m44 32v4h-6v-4h6z" style="opacity:.2"/>
 <path d="m44 39v4h-6v-4h6z" style="opacity:.2"/>
 <path d="m20 17v4h6v-4h-6zm18 0v4h6v-4h-6zm-27 4v4h6v-4h-6zm36 0v4h6v-4h-6zm-18 2v4h6v-4h-6zm-9 1v4h6v-4h-6zm18 0v4h6v-4h-6zm-27 4v4h6v-4h-6zm36 0v4h6v-4h-6zm-18 2v4h6v-4h-6zm-9 1v4h6v-4h-6zm18 0v4h6v-4h-6zm-27 4v4h6v-4h-6zm36 0v4h6v-4h-6zm-18 2v4h6v-4h-6zm-9 1v4h6v-4h-6zm18 0v4h6v-4h-6zm-9 6v4h6v-4h-6z" style="fill:#ffffff"/>
 <path d="m20 10c-2.700778 0.0033-5.158777 1.559897-6.316406 4h-2.683594c-3.8658331 3.87e-4 -6.9996135 3.134167-7 7v1c3.865e-4 -3.865833 3.1341669-6.999613 7-7h2.683594c1.157629-2.440103 3.615628-3.9967 6.316406-4h6c2.460278 0.003448 4.738165 1.298107 6 3.410156 1.261835-2.112049 3.539722-3.406756 6-3.410156h6c2.700072 0.004069 5.157127 1.560533 6.314453 4h2.685547c3.865833 3.87e-4 6.999613 3.134167 7 7v-1c-3.87e-4 -3.865833-3.134167-6.999613-7-7h-2.685547c-1.157326-2.439467-3.614381-3.995931-6.314453-4h-6c-2.460278 0.0034-4.738165 1.298107-6 3.410156-1.261835-2.112049-3.539722-3.406708-6-3.410156h-6z" style="fill:#ffffff;opacity:.2"/>
</svg>

<svg xmlns="http://www.w3.org/2000/svg" width="64" height="64" version="1">
 <path style="opacity:0.2" d="m 20,11 c -2.700778,0.0033 -5.158777,1.559897 -6.316406,4 H 11 c -3.8658331,3.87e-4 -6.9996135,3.134167 -7,7 v 18 c 3.865e-4,3.865833 3.1341669,6.999613 7,7 h 3.257812 C 15.566175,48.878784 17.710537,49.999104 20,50 h 2.080078 C 22.577008,53.440744 25.52356,55.995586 29,56 h 6 c 3.477182,-0.0034 6.424838,-2.558524 6.921875,-6 H 44 c 2.286701,-0.0034 4.427592,-1.123479 5.734375,-3 H 53 c 3.865833,-3.87e-4 6.999613,-3.134167 7,-7 V 22 c -3.87e-4,-3.865833 -3.134167,-6.999613 -7,-7 H 50.314453 C 49.157127,12.560533 46.700072,11.004069 44,11 h -6 c -2.460278,0.0034 -4.738165,1.298107 -6,3.410156 C 30.738165,12.298107 28.460278,11.003448 26,11 Z"/>
 <path style="fill:#f85b79" d="m 20,10 c -2.700778,0.0033 -5.158777,1.559897 -6.316406,4 H 11 c -3.8658331,3.87e-4 -6.9996135,3.134167 -7,7 v 18 c 3.865e-4,3.865833 3.1341669,6.999613 7,7 h 3.257812 C 15.566175,47.878784 17.710537,48.999104 20,49 h 2.080078 C 22.577008,52.440744 25.52356,54.995586 29,55 h 6 c 3.477182,-0.0034 6.424838,-2.558524 6.921875,-6 H 44 c 2.286701,-0.0034 4.427592,-1.123479 5.734375,-3 H 53 c 3.865833,-3.87e-4 6.999613,-3.134167 7,-7 V 21 c -3.87e-4,-3.865833 -3.134167,-6.999613 -7,-7 H 50.314453 C 49.157127,11.560533 46.700072,10.004069 44,10 h -6 c -2.460278,0.0034 -4.738165,1.298107 -6,3.410156 C 30.738165,11.298107 28.460278,10.003448 26,10 Z"/>
 <path style="opacity:0.2" d="m 11,22 c 0,1.333348 0,2.666652 0,4 2.000001,0 4,0 6,0 0,-1.333348 0,-2.666652 0,-4 -2,0 -3.999999,0 -6,0 z"/>
 <path style="opacity:0.2" d="m 11,29 c 0,1.333348 0,2.666652 0,4 2.000001,0 4,0 6,0 0,-1.333348 0,-2.666652 0,-4 -2,0 -3.999999,0 -6,0 z"/>
 <path style="opacity:0.2" d="m 11,36 c 0,1.333348 0,2.666652 0,4 2.000001,0 4,0 6,0 0,-1.333348 0,-2.666652 0,-4 -2,0 -3.999999,0 -6,0 z"/>
 <path style="opacity:0.2" d="m 20,18 c 0,1.333348 0,2.666652 0,4 2.000002,0 4,0 6,0 0,-1.333348 0,-2.666652 0,-4 -2,0 -3.999998,0 -6,0 z"/>
 <path style="opacity:0.2" d="m 20,25 c 0,1.333348 0,2.666652 0,4 2.000002,0 4,0 6,0 0,-1.333348 0,-2.666652 0,-4 -2,0 -3.999998,0 -6,0 z"/>
 <path style="opacity:0.2" d="m 20,32 c 0,1.333348 0,2.666652 0,4 2.000002,0 4,0 6,0 0,-1.333348 0,-2.666652 0,-4 -2,0 -3.999998,0 -6,0 z"/>
 <path style="opacity:0.2" d="m 20,39 c 0,1.333348 0,2.666652 0,4 2.000002,0 4,0 6,0 0,-1.333348 0,-2.666652 0,-4 -2,0 -3.999998,0 -6,0 z"/>
 <path style="opacity:0.2" d="m 29,24 c 0,1.333348 0,2.666652 0,4 2.000002,0 4,0 6,0 0,-1.333348 0,-2.666652 0,-4 -2,0 -3.999998,0 -6,0 z"/>
 <path style="opacity:0.2" d="m 29,31 c 0,1.333348 0,2.666652 0,4 2.000002,0 4,0 6,0 0,-1.333348 0,-2.666652 0,-4 -2,0 -3.999998,0 -6,0 z"/>
 <path style="opacity:0.2" d="m 29,38 c 0,1.333348 0,2.666652 0,4 2.000002,0 4,0 6,0 0,-1.333348 0,-2.666652 0,-4 -2,0 -3.999998,0 -6,0 z"/>
 <path style="opacity:0.2" d="m 29,45 c 0,1.333348 0,2.666652 0,4 2.000002,0 4,0 6,0 0,-1.333348 0,-2.666652 0,-4 -2,0 -3.999998,0 -6,0 z"/>
 <path style="opacity:0.2" d="m 53,22 c 0,1.333348 0,2.666652 0,4 -2.000001,0 -4,0 -6,0 0,-1.333348 0,-2.666652 0,-4 2,0 3.999999,0 6,0 z"/>
 <path style="opacity:0.2" d="m 53,29 c 0,1.333348 0,2.666652 0,4 -2.000001,0 -4,0 -6,0 0,-1.333348 0,-2.666652 0,-4 2,0 3.999999,0 6,0 z"/>
 <path style="opacity:0.2" d="m 53,36 c 0,1.333348 0,2.666652 0,4 -2.000001,0 -4,0 -6,0 0,-1.333348 0,-2.666652 0,-4 2,0 3.999999,0 6,0 z"/>
 <path style="opacity:0.2" d="m 44,18 c 0,1.333348 0,2.666652 0,4 -2.000002,0 -4,0 -6,0 0,-1.333348 0,-2.666652 0,-4 2,0 3.999998,0 6,0 z"/>
 <path style="opacity:0.2" d="m 44,25 c 0,1.333348 0,2.666652 0,4 -2.000002,0 -4,0 -6,0 0,-1.333348 0,-2.666652 0,-4 2,0 3.999998,0 6,0 z"/>
 <path style="opacity:0.2" d="m 44,32 c 0,1.333348 0,2.666652 0,4 -2.000002,0 -4,0 -6,0 0,-1.333348 0,-2.666652 0,-4 2,0 3.999998,0 6,0 z"/>
 <path style="opacity:0.2" d="m 44,39 c 0,1.333348 0,2.666652 0,4 -2.000002,0 -4,0 -6,0 0,-1.333348 0,-2.666652 0,-4 2,0 3.999998,0 6,0 z"/>
 <path style="fill:#ffffff" d="M 20 17 L 20 21 L 26 21 L 26 17 L 20 17 z M 38 17 L 38 21 L 44 21 L 44 17 L 38 17 z M 11 21 L 11 25 L 17 25 L 17 21 L 11 21 z M 47 21 L 47 25 L 53 25 L 53 21 L 47 21 z M 29 23 L 29 27 L 35 27 L 35 23 L 29 23 z M 20 24 L 20 28 L 26 28 L 26 24 L 20 24 z M 38 24 L 38 28 L 44 28 L 44 24 L 38 24 z M 11 28 L 11 32 L 17 32 L 17 28 L 11 28 z M 47 28 L 47 32 L 53 32 L 53 28 L 47 28 z M 29 30 L 29 34 L 35 34 L 35 30 L 29 30 z M 20 31 L 20 35 L 26 35 L 26 31 L 20 31 z M 38 31 L 38 35 L 44 35 L 44 31 L 38 31 z M 11 35 L 11 39 L 17 39 L 17 35 L 11 35 z M 47 35 L 47 39 L 53 39 L 53 35 L 47 35 z M 29 37 L 29 41 L 35 41 L 35 37 L 29 37 z M 20 38 L 20 42 L 26 42 L 26 38 L 20 38 z M 38 38 L 38 42 L 44 42 L 44 38 L 38 38 z M 29 44 L 29 48 L 35 48 L 35 44 L 29 44 z"/>
 <path style="opacity:0.2;fill:#ffffff" d="M 20 10 C 17.299222 10.0033 14.841223 11.559897 13.683594 14 L 11 14 C 7.1341669 14.000387 4.0003865 17.134167 4 21 L 4 22 C 4.0003865 18.134167 7.1341669 15.000387 11 15 L 13.683594 15 C 14.841223 12.559897 17.299222 11.0033 20 11 L 26 11 C 28.460278 11.003448 30.738165 12.298107 32 14.410156 C 33.261835 12.298107 35.539722 11.0034 38 11 L 44 11 C 46.700072 11.004069 49.157127 12.560533 50.314453 15 L 53 15 C 56.865833 15.000387 59.999613 18.134167 60 22 L 60 21 C 59.999613 17.134167 56.865833 14.000387 53 14 L 50.314453 14 C 49.157127 11.560533 46.700072 10.004069 44 10 L 38 10 C 35.539722 10.0034 33.261835 11.298107 32 13.410156 C 30.738165 11.298107 28.460278 10.003448 26 10 L 20 10 z"/>
</svg>
